X:1
T:Hold Back The Waters
M:3/4
L:1/4
K:G
 G| B3/2 d/2 d| e/2 d3/2 B/2B/2| G3/2 G/2 G| G2 z| z2 B| B d d| e d B|\
 B d d| d z G| d3/2 d d/2| e d3/2 d/2| B G G| G2 z| z2 A/2A/2| B A3/2 G/2|\
 D G2-| G2 z| G G2| G/2G/2 G2-| G2- G/2 z/2| z2 d| e e3/2 e/2| e d c|\
 d d3/2 e/2| d B G| A A3/2 A/2| B A3/2 A/2| G/2 G3/2 G| G2- G/2 z/2|\
 z2 d| e e e| e d e| d d3/2 e/2| d B z/2 A/2| G/2 G3/2 G| G/2 D3/2 D|\
 E/2 G3/2 G| G2 A,| G, G,3/2 A,/2| B, A, G,| A, B, A,| G,2||
